X:15
T:Twenty Men from Dublin
C:Traditional
M:4/4
K:HP
e1| \
{g}A3{d}B1{G}A2{Gdc}d2|{gfg}f3{g}e1{Gdc}d4|{gBd}B3c1 {gef}e1d1 {gcd}c1{e}B1|{G}A4{GAG}A4|!
{g}A3{d}B1{G}A2{Gdc}d2|{gfg}f3{g}e1{Gdc}d4|{gef}e3f1 {gf}g1e1 {gcd}c1{e}A1|{Gdc}d4{gdG}d4||!
{gf}g2{a}f2{gef}e2{AGAG}A2|{gfg}f3{g}e1{Gdc}d4|{gBd}B3c1 {gef}e1d1 {gcd}c1{e}B1|{G}A4{GAG}A4|!
{g}A3{d}B1{G}A2{Gdc}d2|{gfg}f3{g}e1{Gdc}d4|{gef}e3f1 {gf}g1e1 {gcd}c1{e}A1|{Gdc}d4{gdG}d3:|]

%%newpage


